!!!COM: Bach, Johann Sebastian
!!!CDT: 1685/3//-1750/7/28/
!!!OTL@@DE: Meinen Jesum lass ich nicht
!!!AGN: 4-Part Chorale
!!!SCT: BH 299
!!!SCT: BWV 380
!!!YEC: Copyright 1994, David Huron
!!!YEC: Changes/Additions 2001 by Craig Stuart Sapp
!!!YEN: United States of America
!!!SMA: 371 Bach Chorales, edited by Ludwig Erk, C.F. Peters
!!!PDT: 1850, 1865
!!!ONB: Harmony and Root analysis done manually
**kern	**kern	**kern	**kern	**root	**harm
!bass	!tenor	!alto	!soprno	!	!
*Iorgan	*Iorgan	*Iorgan	*Iorgan	*Iorgan	*
*M4/4	*M4/4	*M4/4	*M4/4	*M4/4	*M4/4
*met(C)	*met(C)	*met(C)	*met(C)	*met(C)	*met(C)
*MM60	*MM60	*MM60	*MM60	*MM60	*MM60
*k[b-e-a-]	*k[b-e-a-]	*k[b-e-a-]	*k[b-e-a-]	*k[b-e-a-]	*k[b-e-a-]
*E-:	*E-:	*E-:	*E-:	*E-:	*E-:
=1-	=1-	=1-	=1-	=1-	=1-
8E-	4e-	4g	4b-	4EE-	I
8F	.	.	.	.	.
8G	4e-	4g	4b-	4EE-	Ib
8E-	.	.	.	.	.
8A-	4c	4e-	4cc	4AA-	IV
8G	.	.	.	.	.
8A-	4f	4a-	4cc	4FF	iib
8F	.	.	.	.	.
=2	=2	=2	=2	=2	=2
4B-	8f	8a-	4dd	4BB-	V7
.	8e-	8g	.	.	.
4BB-	8f	4a-	8dd	4BB-	V7
.	8d	.	16ee-	.	.
.	.	.	16ff	.	.
2E-;	2B-;	2g;	2ee-;	2EE-;	I;
=3	=3	=3	=3	=3	=3
8BB-	8d	4b-	4ff	4BB-	V
8C	8e-	.	.	.	.
8D	8f	8b-	4ff	4BB-	Vb
8BB-	8d	8a-	.	.	.
8C	8d	4.g	4ee-	4CC	vi
8D	16c	.	.	.	.
.	16Bn	.	.	.	.
8E-	4c	.	4ee-	8CC	vi
8F	.	8an	.	8FF	V7/V
=4	=4	=4	=4	=4	=4
8G	4B-	8b-	4dd	4GG	iii
8F	.	8an	.	.	.
8E-	4B-	8g	8cc	8EE-	I
8C	.	8e-	16dd	8CC	vi7
.	.	.	16ee-	.	.
4F	8B-	4.f	2cc	4FF	V/V
.	8G	.	.	.	.
4FF	4An	.	.	4FF	V/V
.	.	8e-	.	.	.
=5	=5	=5	=5	=5	=5
2BB-;	2F;	2d;	2b-;	2BB-;	V;
8E-	8G	4e-	4b-	4EE-	I
8F	8A-y	.	.	.	.
8G	8B-	4e-	4b-	4EE-	Ib
8E-	8G	.	.	.	.
=6	=6	=6	=6	=6	=6
8A-	8A-	4e-	4cc	4AA-	IV
8G	8B-	.	.	.	.
8F	4c	4a-	4cc	4FF	ii
8E-	.	.	.	.	.
8D	8F	8a-	4b-	8BB-	V7b
8En	8G	8g	.	8EE	viio/ii
4F	8A-	4f	8a-	4FF	ii
.	8B-	.	8g	.	.
!!linebreak: 2
=7	=7	=7	=7	=7	=7
2C;	2c;	2en;	2g;	2CC;	VI;
8G	8B-	8e	4b-	4EE	viiob/II
8F	8A-	8f	.	.	.
8En	4G	8g	4b-	4CC	V7b/II
8C	.	8e	.	.	.
=8	=8	=8	=8	=8	=8
8F	4A-	4c	4a-	4FF	ii
8E-y	.	.	.	.	.
8D	4B-	8f	4a-	4BB-	V7b
8BB-	.	8d	.	.	.
8E-	4B-	4e-	4g	4EE-	I
8G	.	.	.	.	.
8A-	8c	4e-	8f	8FF	ii7b
8F	8A-	.	16g	8FF	ii7
.	.	.	16a-	.	.
=9	=9	=9	=9	=9	=9
4B-	8B-	4e-	2f	4BB-	V
.	8G	.	.	.	.
4BB-	4A-	4d	.	4BB-	V7
2E-;	2G;	2B-;	2e-;	2EE-;	I;
=10	=10	=10	=10	=10	=10
8e-	4e-	4g	4b-	4EE-	I
8d-	.	.	.	.	.
8c	4e-	4g	4b-	4CC	vi7
8B-	.	.	.	.	.
8A-	4e-	4a-	4cc	4AA-	IV
8G	.	.	.	.	.
8F	4f	8a-	4cc	4FF	ii
8E-	.	8g	.	.	.
=11	=11	=11	=11	=11	=11
8D	8Bn	4f	4dd	4BB	viiob/vi
8C	8c	.	.	.	.
8BBn	8d	4g	8dd	8GG	V/vi
8GG	8Bn	.	16ee-	8GG	V/vi
.	.	.	16ff	.	.
2C;	2c;	2g;	2ee-;	2CC;	vi;
=12	=12	=12	=12	=12	=12
8E-	4G	4e-	4b-	4EE-	I
8D-	.	.	.	.	.
8C	4G	4e-	8b-	4CC	vi7
8BB-	.	.	16cc	.	.
.	.	.	16dd-	.	.
8AA-	8A-	8e-	8cc	8AA-	IV
8BB-	8F	8d	8b-	8BB-	V
8C	8E-	4e-	8a-	8AA-	IVb
8BB-	8B-	.	8g	8EE-	Ic
=13	=13	=13	=13	=13	=13
4AA-	4c	4e-	8f	4FF	ii7b
.	.	.	16g	.	.
.	.	.	16a-	.	.
4BB-	8B-	4d	4f	4BB-	V
.	8A-	.	.	.	.
2E-;	2G;	2B-;	2e-;	2EE-;	I;
==	==	==	==	==	==
*-	*-	*-	*-	*-	*-
!!chor2scor: -l 2 -s 0.6 -o %b.pmx
